X:2101
T:Taorluath to D
C: Kevin Fraser
B: https://bagpipes.ksfraser.com
O: Kevin Fraser
Z:Kevin Fraser
Q:1/4=78
K:HP
M:4/4
L:1/4
%%MIDI gracedivider 4
%%MIDI gchord
%%MIDI beatstring 
[| G {GdGe}d A {GdGe}d | B {GdGe}d c {GdGe}d | d {GBGe}d e {GdGe}d | f {GdGe}d g {GdGe}d | 
   a {GdGe}d a {GdGe}d | g {GdGe}d f {GdGe}d | e {GdGe}d d {GBGe}d | c {GdGe}d B {GdGe}d | A {GdGe}d G {GdGe}d |]
W:
% X:1605
T:Taorluath to C
C: Kevin Fraser
B: https://bagpipes.ksfraser.com
O: Kevin Fraser
Z:Kevin Fraser
Q:1/4=78
K:HP
M:4/4
L:1/4
%%MIDI gracedivider 4
%%MIDI gchord
%%MIDI beatstring 
[| G {GdGe}c A {GdGe}c | B {GdGe}c c {GdGe}c | d {GdGe}c e {GdGe}c | f {GdGe}c g {GdGe}c | 
a {GdGe}c a {GdGe}c | g {GdGe}c f {GdGe}c | e {GdGe}c d {GdGe}c | c {GdGe}c B {GdGe}c | A {GdGe}c G {GdGe}c |]
% X:1606
T:Taorluath to B
C: Kevin Fraser
B: https://bagpipes.ksfraser.com
O: Kevin Fraser
Z:Kevin Fraser
Q:1/4=78
K:HP
M:4/4
L:1/4
%%MIDI gracedivider 4
%%MIDI gchord
%%MIDI beatstring 
[| G {GdGe}B A {GdGe}B | B {GdGe}B c {GdGe}B | d {GdGe}B e {GdGe}B | f {GdGe}B g {GdGe}B | 
   a {GdGe}B a {GdGe}B   | g {GdGe}B f {GdGe}B | e {GdGe}B d {GdGe}B | c {GdGe}B B {GdGe}B | A {GdGe}B G {GdGe}B |]
% X:1607
T:Taorluath to A
C: Kevin Fraser
B: https://bagpipes.ksfraser.com
O: Kevin Fraser
Z:Kevin Fraser
Q:1/4=78
K:HP
M:4/4
L:1/4
%%MIDI gracedivider 40
%%MIDI gchord
%%MIDI beatstring 
[| G {GdGe}A A {GdGe}A   | B {GdGe}A c {GdGe}A | d {GdGe}A e   {GdGe}A   | f {GdGe}A g {GdGe}A | 
   a {GdGe}A   a {GdGe}A   | g {GdGe}A   f {GdGe}A |e {GdGe}A d {GdGe}A | c {GdGe}A B {GdGe}A |
   A {GdGe}A G {GdGe}A |]
% X:1608
T:Taorluath to G
C: Kevin Fraser
B: https://bagpipes.ksfraser.com
O: Kevin Fraser
Z:Kevin Fraser
Q:1/4=78
K:HP
M:4/4
L:1/4
%%MIDI gracedivider 4
%%MIDI gchord
%%MIDI beatstring 
[| G {GdGe}G A {GdGe}G | B {GdGe}G c {GdGe}G | d {GdGe}G e {GdGe}G | f {GdGe}G g {GdGe}G | 
   a {GdGe}G  a {GdGe}G  | g {GdGe}G f {GdGe}G | e {GdGe}G d {GdGe}G | c {GdGe}G B {GdGe}G | A {GdGe}G G {GdGe}G |]


